X:24
T:Dance. ET.24
T:Rowling Bet,aka. ET.24
M:6/8
L:1/8
Q:1/4=80
S:Eliza Tennyson MS, Lincolnshire,1822
R:jig
O:England;Lincolnshire;Somersby
Z:vmp.R.Greig 2012 <http://www.village-music-project.org.uk>
K:Bb
[V:1]F|ddd dec|cBBB2f|fAA ABc|cBB B2 F|
[V:2]D,|B,,D,F, B,,D,F,|B,,D,F, B,,D,F,|A,,C,F, A,,C,F,|B,,D,F,B,,2z|
[V:1]ddd dec|cBBB2f|fAA ABc|cBBB2b||
[V:2]B,,D,F, B,,D,F,|B,,D,F, B,,D,F,|A,,C,F, A,,C,F,|B,,D,F,”rest added”B,,2z||
[V:1]abc’ ede|ffef2b|abc’ ede|ffff2b|
[V:2]A,,C,F, B,,D,F,|A,,C,F, A,,C,F,|A,,C,F, B,,D,F,|A,,C,F, A,,C,F,|
[V:1]bab bab|gab faf|edc”bar line omitted” BBB|B3″rest added”z2″8″|]
[V:2]B,,D,F, B,,D,F,|B,,D,F, B,,D,F,|B,,D,F, “bar line omitted” B,,D,F,|B,,D,F, z2″8″|]

